web/ui/src/components/theme/message/svgs/success.svg

<svg height="16" viewBox="0 0 16 16" width="16" xmlns="http://www.w3.org/2000/svg"><g fill="none" fill-rule="evenodd"><path d="m7.88919-.00000176c-4.35708693 0-7.88919 3.52914733-7.88919 7.88258817 0 4.35342329 3.53210307 7.88258819 7.88919 7.88258819 4.3570869 0 7.88919-3.5291649 7.88919-7.88258819 0-4.35344084-3.5321031-7.88258817-7.88919-7.88258817" fill="#13c2c2"/><g fill="#fff"><path d="m6.61798967 10.5602488-.49807555-.4976587 4.82651138-4.84006752c.165039-.16491853.4326375-.16491853.5976942 0l.1992372.19905294c.1650391.16491853.1650391.4322931 0 .59721163l-4.52767303 4.54146165c-.16503904.1649186-.43263755.1649186-.5976942 0"/><path d="m7.71285956 10.0625865-.49807556.4976588c-.16505664.1649185-.43265515.1649185-.59769419 0l-1.98332123-1.98166154c-.16505665-.16490093-.16505665-.43227551 0-.59719403l.19921966-.19905295c.16505664-.16491852.43265515-.16491852.5977118 0z"/></g></g></svg>

<?xml version="1.0" encoding="UTF-8"?>
<svg width="16px" height="16px" viewBox="0 0 16 16" version="1.1" xmlns="http://www.w3.org/2000/svg" xmlns:xlink="http://www.w3.org/1999/xlink">
    <title>pop_icon_chengong_default</title>
    <defs>
        <polygon id="path-1" points="0 0 15.77838 0 15.77838 15.7651746 0 15.7651746"></polygon>
    </defs>
    <g id="页面-1" stroke="none" stroke-width="1" fill="none" fill-rule="evenodd">
        <g id="系统设计规范" transform="translate(-1506.000000, -5294.000000)">
            <g id="system_icon_chengong_default" transform="translate(1506.000000, 5294.000000)">
                <g id="分组">
                    <mask id="mask-2" fill="white">
                        <use xlink:href="#path-1"></use>
                    </mask>
                    <g id="Clip-2"></g>
                    <path d="M7.88919,-1.75950619e-06 C3.53210307,-1.75950619e-06 0,3.52914557 0,7.88258641 C0,12.2360097 3.53210307,15.7651746 7.88919,15.7651746 C12.2462769,15.7651746 15.77838,12.2360097 15.77838,7.88258641 C15.77838,3.52914557 12.2462769,-1.75950619e-06 7.88919,-1.75950619e-06" id="Fill-1" fill="#13C2C2"></path>
                </g>
                <path d="M6.61798967,10.5602488 L6.11991412,10.0625901 L10.9464255,5.22252258 C11.1114645,5.05760405 11.379063,5.05760405 11.5441197,5.22252258 L11.7433569,5.42157552 C11.908396,5.58649405 11.908396,5.85386862 11.7433569,6.01878715 L7.21568387,10.5602488 C7.05064483,10.7251674 6.78304632,10.7251674 6.61798967,10.5602488" id="Fill-3" fill="#FFFFFF"></path>
                <path d="M7.71285956,10.0625865 L7.214784,10.5602453 C7.04972736,10.7251638 6.78212885,10.7251638 6.61708981,10.5602453 L4.63376858,8.57858376 C4.46871193,8.41368283 4.46871193,8.14630825 4.63376858,7.98138973 L4.83298824,7.78233678 C4.99804488,7.61741826 5.26564339,7.61741826 5.43070004,7.78233678 L7.71285956,10.0625865 Z" id="Fill-5" fill="#FFFFFF"></path>
            </g>
        </g>
    </g>
</svg>
